X:533
T:Edinburgh Castle. (p)1721.PLFD.533
T:Mother Dobney's Trencher. (p)1721.PLFD.533
M:6/4
L:1/4
Q:3/4=90
S:Playford, Dancing Master,17th Ed.,1721.
O:England
Z:Chris Partington.
K:F
D|FA^CDFA,|=B,^CDECA,|FAdEFD|1^C/D/EA,D2:|2^C/D/EA,D3|
|:f2dfac'|gecgab|g2fefd|^cc/d/eA3|
F2EFAg|e2dcea|AGFEFD|^C/D/EA,D3:|
